X: 11
T: Fox On The Town, The
C: Richard Dwyer
Z: ceili
S: https://thesession.org/tunes/341#setting48449
R: reel
M: 4/4
L: 1/8
K: Gmaj
|:"G"g2fg edBA|G/G/G BG DGBd|gedg "C"e2ef|g/g/g fg "D"efga|
"Em"be e/e/e edBA|"G"G/G/G BG DGBd|"C"efgb "D"agfa|"G"g/g/g gf "G"g4:|
|:"Em"be e/e/e bage|"G"dB B/B/B dega|"Em"be e/e/e bage|"D"degb "G"a2gf|
"Em"g3d egdB|"G"G2Bd edBd|"C"efgb "D"agfa|"G"g/g/g gf "G"g4:|

